www/assets/images/src/icon_grading_check.svg

<svg fill="none" height="43" viewBox="0 0 43 43" width="43" xmlns="http://www.w3.org/2000/svg"><path d="m18.4764 28.8347c-.2353.0003-.4684-.046-.6858-.1361s-.4148-.2222-.5809-.3889l-5.0391-5.039c-.3325-.3367-.5183-.7912-.5168-1.2644.0015-.4731.1901-.9265.5247-1.2611s.7879-.5232 1.2611-.5247.9277.1842 1.2644.5167l3.7723 3.7723 9.8193-9.8192c.3367-.3324.7912-.5182 1.2644-.5167s.9265.1901 1.2611.5247.5232.788.5247 1.2612c.0015.4731-.1843.9277-.5168 1.2643l-11.0859 11.086c-.1662.1666-.3636.2988-.581.3888-.2174.0901-.4504.1364-.6857.1361z" fill="#fff" opacity=".99"/><path d="m21.5002 3.58337c-3.5436 0-7.0076 1.0508-9.954 3.01951-2.94638 1.96871-5.2428 4.76692-6.59887 8.04072-1.35607 3.2739-1.71088 6.8763-1.01956 10.3518s2.39771 6.6679 4.9034 9.1736c2.50573 2.5057 5.69813 4.2121 9.17363 4.9034 3.4755.6914 7.0779.3366 10.3518-1.0195 3.2738-1.3561 6.072-3.6525 8.0407-6.5989s3.0195-6.4104 3.0195-9.954c-.0054-4.7501-1.8948-9.3041-5.2536-12.66295-3.3589-3.35885-7.9129-5.24824-12.663-5.25368zm9.3292 13.64043-11.086 11.086c-.1663.1664-.3638.2984-.5811.3885-.2174.09-.4503.1364-.6856.1364s-.4683-.0464-.6856-.1364c-.2174-.0901-.4149-.2221-.5812-.3885l-5.0389-5.0391c-.3325-.3367-.5183-.7912-.5168-1.2644s.1901-.9265.5247-1.2611c.3345-.3346.7879-.5232 1.2611-.5247.4731-.0015.9277.1842 1.2644.5167l3.7723 3.7723 9.8193-9.8192c.3367-.3325.7912-.5182 1.2644-.5167.4731.0015.9265.1901 1.2611.5247s.5232.788.5247 1.2611c.0014.4732-.1843.9278-.5168 1.2644z" fill="#7abc47"/></svg>

<svg width="43" height="43" viewBox="0 0 43 43" fill="none" xmlns="http://www.w3.org/2000/svg">
<path opacity="0.99" d="M18.4764 28.8347C18.2411 28.835 18.008 28.7887 17.7906 28.6986C17.5732 28.6085 17.3758 28.4764 17.2097 28.3097L12.1706 23.2707C11.8381 22.934 11.6523 22.4795 11.6538 22.0063C11.6553 21.5332 11.8439 21.0798 12.1785 20.7452C12.5131 20.4106 12.9664 20.222 13.4396 20.2205C13.9128 20.219 14.3673 20.4047 14.704 20.7372L18.4763 24.5095L28.2956 14.6903C28.6323 14.3579 29.0868 14.1721 29.56 14.1736C30.0332 14.1751 30.4865 14.3637 30.8211 14.6983C31.1557 15.0329 31.3443 15.4863 31.3458 15.9595C31.3473 16.4326 31.1615 16.8872 30.829 17.2238L19.7431 28.3098C19.5769 28.4764 19.3795 28.6086 19.1621 28.6986C18.9447 28.7887 18.7117 28.835 18.4764 28.8347Z" fill="white"/>
<path d="M21.5002 3.58337C17.9566 3.58337 14.4926 4.63417 11.5462 6.60288C8.59982 8.57159 6.3034 11.3698 4.94733 14.6436C3.59126 17.9175 3.23645 21.5199 3.92777 24.9954C4.61909 28.4709 6.32548 31.6633 8.83117 34.169C11.3369 36.6747 14.5293 38.3811 18.0048 39.0724C21.4803 39.7638 25.0827 39.409 28.3566 38.0529C31.6304 36.6968 34.4286 34.4004 36.3973 31.454C38.366 28.5076 39.4168 25.0436 39.4168 21.5C39.4114 16.7499 37.522 12.1959 34.1632 8.83705C30.8043 5.4782 26.2503 3.58881 21.5002 3.58337ZM30.8294 17.2238L19.7434 28.3098C19.5771 28.4762 19.3796 28.6082 19.1623 28.6983C18.9449 28.7883 18.712 28.8347 18.4767 28.8347C18.2414 28.8347 18.0084 28.7883 17.7911 28.6983C17.5737 28.6082 17.3762 28.4762 17.2099 28.3098L12.171 23.2707C11.8385 22.934 11.6527 22.4795 11.6542 22.0063C11.6557 21.5331 11.8443 21.0798 12.1789 20.7452C12.5134 20.4106 12.9668 20.222 13.44 20.2205C13.9131 20.219 14.3677 20.4047 14.7044 20.7372L18.4767 24.5095L28.296 14.6903C28.6327 14.3578 29.0872 14.1721 29.5604 14.1736C30.0335 14.1751 30.4869 14.3637 30.8215 14.6983C31.1561 15.0329 31.3447 15.4863 31.3462 15.9594C31.3476 16.4326 31.1619 16.8872 30.8294 17.2238Z" fill="#7ABC47"/>
</svg>
